!!!OTL: 159. Freylekhs
!!!Genre:	Freylekhs
!!!Mode:	Major
!!!Listening/dance:	dance
!!!One_Mode:	yes
**kern
*I"P1
*clefG2
*k[f#]
*G:
*M2/4
*>A
=1
4dd
(8qff#/
8eeL)
16ddL
16ccJJ
=2
(8qff#/
8eeL)
16ddL
16ccJJ
(8qcc/
8bL)
16aL
16gJJ
=3
16aLL
16b
16cc
16ddJJ
4b
=4
(16bLL
16a)
(16a
16gJJ)
4b
=5
4dd
8eeL
16ddL
16ccJJ
=6
8eeL
16ddL
16ccJJ
8btL
16aL
16gJJ
=7
16aLL
16b
16cc
16ddJJ
4b
=8
((8qcc/
16bLL)
16a)
(16a
16f#JJ)
4g
=9:|!|:
*>B
16aLL
16b
16cc
16ddJJ
4bt
=10
(16bLL
16a)
(16a
16gJJ)
4bt
=11
16aLL
16b
16cc
16ddJJ
4bt
=12
(16bLL
16a)
(16a
16f#JJ)
4g
=13:|!|:
*>C
((8qd/
8.gL)
16bJk)
(16bLL
16a)
(16a
16gJJ)
=14
(16bLL
16a)
(16a
16gJJ)
4bt
=15
16aLL
16b
16cc
16ddJJ
4bt
=16
(16bLL
16a)
(16a
16gJJ)
(8.ddL
16dJk)
=17
8.gL
16bJk
(16bLL
16a)
(16a
16gJJ)
=18
(16bLL
16a)
(16a
16gJJ)
4bt
=19
16aLL
16b
16cc
16ddJJ
4bt
=20
(16bLL
16a)
(16a
16f#JJ)
4g
==:|!
*-
